X:11655
T:Naughton's
R:Reel
S:
H:
N:Tommy & Siobhan Peoples, PJ King, Andrew Macnamara, Kevin Crawford etc
D:Maiden Voyage: Music from Pepper's Bar, Feakle, Co. Clare
Z:Adrian Scahill
M:4/4
L:1/8
K:D
D2FD FAA2|fedf edBc|dBAF G3B|AGFD EGFE|\
D2FD FAA2|fedf edBc|dBAF G3B|AGFD EGFE:||\
defg afdf|gefd edBc|defg afdf|gfed Bee2|\
defg afdf|gefd edBc|dBAF G3B|AGFD EGFE:||


